svg/design/ease_in_out_control_point_line.svg

<svg xmlns="http://www.w3.org/2000/svg" width="24" height="24" viewBox="0 0 24 24"><g fill="none" fill-rule="evenodd"><path d="M24,0 L24,24 L0,24 L0,0 L24,0 Z M12.5935,23.2578 L12.5819,23.2595 L12.5109,23.295 L12.4919,23.2987 L12.4767,23.295 L12.4057,23.2595 C12.3958,23.2564 12.387,23.259 12.3821,23.2649 L12.378,23.2758 L12.3609,23.7031 L12.3659,23.7235 L12.3769,23.7357 L12.4805,23.8097 L12.4953,23.8136 L12.5071,23.8097 L12.6107,23.7357 L12.6233,23.7197 L12.6267,23.7031 L12.6096,23.2758 C12.6076,23.2657 12.601,23.2593 12.5935,23.2578 Z M12.8584,23.1453 L12.8445,23.1473 L12.6598,23.2397 L12.6499,23.2499 L12.6472,23.2611 L12.6651,23.6906 L12.6699,23.7034 L12.6784,23.7105 L12.8793,23.8032 C12.8914,23.8069 12.9022,23.803 12.9078,23.7952 L12.9118,23.7812 L12.8777,23.1665 C12.8753,23.1546 12.8674,23.147 12.8584,23.1453 Z M12.143,23.1473 C12.1332,23.1424 12.1222,23.1453 12.1156,23.1526 L12.1099,23.1665 L12.0758,23.7812 C12.0751,23.7927 12.0828,23.8019 12.0926,23.8046 L12.1083,23.8032 L12.3092,23.7105 L12.3186,23.7024 L12.3225,23.6906 L12.3404,23.2611 L12.3372,23.2485 L12.3278,23.2397 L12.143,23.1473 Z"/><path fill="#09244B" d="M18,17 C19.6569,17 21,18.3431 21,20 C21,21.6569 19.6569,23 18,23 C16.6938,23 15.5825,22.1652 15.1707,21 L14,21 C13.4477,21 13,20.5523 13,20 C13,19.4477 13.4477,19 14,19 L15.1707,19 C15.5825,17.8348 16.6938,17 18,17 Z M20,3 C20.5523,3 21,3.44772 21,4 C21,4.55228 20.5523,5 20,5 C18.3951,5 17.1517,5.77995 16.0182,7.14018 C15.0359,8.31901615 14.2055302,9.85038473 13.3588526,11.5224708 L12.3677279,13.4957602 C11.5304089,15.1459361 10.62212,16.8155333 9.51822,18.1402 C8.15175,19.78 6.39512,21 4,21 C3.44772,21 3,20.5523 3,20 C3,19.4477 3.44772,19 4,19 C5.60488,19 6.84825,18.22 7.98178,16.8598 C8.96413923,15.6810231 9.79448237,14.1496278 10.6411503,12.4775322 L11.6322792,10.5042344 C12.4696194,8.85404917 13.3779667,7.184445 14.4818,5.85982 C15.8483,4.22005 17.6049,3 20,3 Z M18,19 C17.4477,19 17,19.4477 17,20 C17,20.5523 17.4477,21 18,21 C18.5523,21 19,20.5523 19,20 C19,19.4477 18.5523,19 18,19 Z M11,19 C11.5523,19 12,19.4477 12,20 C12,20.51285 11.613973,20.9355092 11.1166239,20.9932725 L11,21 L10,21 C9.44772,21 9,20.5523 9,20 C9,19.48715 9.38604429,19.0644908 9.88337975,19.0067275 L10,19 L11,19 Z M6,1 C7.240909,1 8.30584855,1.75341603 8.76233298,2.8277624 L8.82929,3 L10,3 C10.5523,3 11,3.44772 11,4 C11,4.51283143 10.613973,4.93550653 10.1166239,4.9932722 L10,5 L8.82929,5 C8.41746,6.16519 7.30622,7 6,7 C4.34315,7 3,5.65685 3,4 C3,2.34315 4.34315,1 6,1 Z M6,3 C5.44772,3 5,3.44772 5,4 C5,4.55228 5.44772,5 6,5 C6.55228,5 7,4.55228 7,4 C7,3.44772 6.55228,3 6,3 Z M14,3 C14.5523,3 15,3.44772 15,4 C15,4.55228 14.5523,5 14,5 L13,5 C12.4477,5 12,4.55228 12,4 C12,3.44772 12.4477,3 13,3 L14,3 Z"/></g></svg>

<svg xmlns="http://www.w3.org/2000/svg" width="24" height="24"><g fill="none" fill-rule="evenodd"><path d="M24 0v24H0V0zM12.594 23.258l-.012.002-.071.035-.02.004-.014-.004-.071-.036c-.01-.003-.019 0-.024.006l-.004.01-.017.428.005.02.01.013.104.074.015.004.012-.004.104-.074.012-.016.004-.017-.017-.427c-.002-.01-.009-.017-.016-.018m.264-.113-.014.002-.184.093-.01.01-.003.011.018.43.005.012.008.008.201.092c.012.004.023 0 .029-.008l.004-.014-.034-.614c-.003-.012-.01-.02-.02-.022m-.715.002a.023.023 0 0 0-.027.006l-.006.014-.034.614c0 .012.007.02.017.024l.015-.002.201-.093.01-.008.003-.011.018-.43-.003-.012-.01-.01z"/><path fill="#09244B" d="M18 17a3 3 0 1 1-2.83 4H14a1 1 0 1 1 0-2h1.17A3.001 3.001 0 0 1 18 17m2-14a1 1 0 1 1 0 2c-1.605 0-2.848.78-3.982 2.14-.982 1.179-1.812 2.71-2.66 4.382l-.99 1.974c-.838 1.65-1.746 3.32-2.85 4.644C8.152 19.78 6.395 21 4 21a1 1 0 1 1 0-2c1.605 0 2.848-.78 3.982-2.14.982-1.179 1.812-2.71 2.66-4.382l.99-1.974c.838-1.65 1.746-3.32 2.85-4.644C15.848 4.22 17.605 3 20 3m-2 16a1 1 0 1 0 0 2 1 1 0 0 0 0-2m-7 0a1 1 0 0 1 .117 1.993L11 21h-1a1 1 0 0 1-.117-1.993L10 19zM6 1a3 3 0 0 1 2.762 1.828L8.83 3H10a1 1 0 0 1 .117 1.993L10 5H8.83A3.001 3.001 0 1 1 6 1m0 2a1 1 0 1 0 0 2 1 1 0 0 0 0-2m8 0a1 1 0 1 1 0 2h-1a1 1 0 1 1 0-2z"/></g></svg>
